src/images/common/choise/weight-icon.svg

<svg width="40" height="51" viewBox="0 0 40 51" fill="none" xmlns="http://www.w3.org/2000/svg">
<path d="M19.5435 20.2461C13.5606 20.2461 8.71724 25.0894 8.71724 31.0723C8.71724 37.0553 13.5606 41.8986 19.5435 41.8986C25.5264 41.8986 30.3697 37.0553 30.3697 31.0723C30.5121 25.0894 25.5264 20.2461 19.5435 20.2461ZM20.6831 39.6194V39.192C20.6831 38.6222 20.2557 38.0524 19.5435 38.0524C18.8312 38.0524 18.5463 38.6222 18.5463 39.192V39.6194C14.7002 39.0496 11.5662 36.0581 11.1389 32.0695H11.5662C12.136 32.0695 12.7058 31.6422 12.7058 30.9299C12.7058 30.3601 12.2785 29.7903 11.5662 29.7903H10.9964C11.5662 25.8017 14.5577 22.8102 18.5463 22.2404V22.6678C18.5463 23.2376 18.9737 23.8074 19.6859 23.8074C20.3982 23.8074 20.8255 23.38 20.8255 22.6678V22.2404C24.6717 22.8102 27.6631 25.8017 28.2329 29.6478H27.8056C27.2358 29.6478 26.666 30.0752 26.666 30.7875C26.666 31.3573 27.0933 31.9271 27.8056 31.9271H28.2329C27.6631 36.0581 24.6717 39.192 20.6831 39.6194Z" fill="#DE383F"/>
<path d="M22.8198 26.229L21.1104 27.9384C19.6859 27.2262 18.119 27.5111 16.9794 28.5082C15.5549 29.9328 15.5549 32.0695 16.9794 33.494C18.4039 34.9185 20.5406 34.9185 21.9651 33.494C22.6774 32.7818 22.9623 31.9271 22.9623 30.9299C22.9623 30.3601 22.8198 29.7903 22.5349 29.3629L24.2443 27.6535C24.6717 27.2262 24.6717 26.5139 24.2443 26.0866C23.9594 25.8017 23.2472 25.8017 22.8198 26.229ZM20.5406 31.9271C19.9708 32.3544 19.1161 32.3544 18.6888 31.9271C18.119 31.3573 18.119 30.5026 18.5463 29.9328C18.9737 29.3629 19.9708 29.3629 20.5406 29.7903C21.1104 30.2176 21.2529 31.3573 20.5406 31.9271Z" fill="#DE383F"/>
<path d="M32.6489 48.4513H28.5178C38.062 43.608 41.9081 31.9271 37.0648 22.2404C33.9309 15.9726 27.6631 11.984 20.6831 11.5567V7.28318H32.6489C33.2187 7.28318 33.7885 6.85583 33.7885 6.14357V1.87007C33.7885 1.30027 33.3611 0.730469 32.7913 0.730469H6.58049C6.01069 0.730469 5.58334 1.15782 5.58334 1.87007V6.14357C5.58334 6.71338 6.01069 7.28318 6.72294 7.28318H18.5463V11.6991C7.72009 12.1265 -0.542016 21.2433 0.0277851 32.0695C0.312685 39.0496 4.44374 45.3174 10.7115 48.4513H6.58049C6.01069 48.4513 5.44089 48.8786 5.44089 49.5909C5.44089 50.1607 5.86824 50.7305 6.58049 50.7305H32.6489C33.2187 50.7305 33.7885 50.3031 33.7885 49.5909C33.646 48.8786 33.2187 48.4513 32.6489 48.4513ZM7.72009 2.86722H31.5093V5.00397H7.72009V2.86722ZM2.30699 31.0723C2.30699 21.5282 10.1417 13.6934 19.6859 13.8359C29.2301 13.9783 37.0648 21.6706 36.9224 31.2148C36.9224 40.759 29.0876 48.4513 19.5435 48.4513C9.9993 48.4513 2.30699 40.6165 2.30699 31.0723Z" fill="#DE383F"/>
</svg>

<svg width="40" height="51" fill="none" xmlns="http://www.w3.org/2000/svg"><path d="M19.544 20.246A10.821 10.821 0 008.717 31.072 10.821 10.821 0 0019.544 41.9 10.821 10.821 0 0030.37 31.072c.142-5.983-4.844-10.826-10.826-10.826zm1.14 19.373v-.427c0-.57-.428-1.14-1.14-1.14-.713 0-.998.57-.998 1.14v.427c-3.846-.57-6.98-3.56-7.407-7.55h.427c.57 0 1.14-.427 1.14-1.14 0-.569-.428-1.139-1.14-1.139h-.57c.57-3.988 3.562-6.98 7.55-7.55v.428c0 .57.428 1.14 1.14 1.14s1.14-.428 1.14-1.14v-.428a8.763 8.763 0 017.407 7.408h-.427c-.57 0-1.14.427-1.14 1.14 0 .57.427 1.14 1.14 1.14h.427c-.57 4.13-3.561 7.264-7.55 7.691z" fill="#DE383F"/><path d="M22.82 26.229l-1.71 1.71c-1.424-.713-2.991-.428-4.13.57-1.425 1.424-1.425 3.56 0 4.985 1.424 1.425 3.56 1.425 4.985 0 .712-.712.997-1.567.997-2.564 0-.57-.142-1.14-.427-1.567l1.71-1.71a1.118 1.118 0 000-1.566c-.286-.285-.998-.285-1.425.142zm-2.28 5.698c-.57.427-1.424.427-1.851 0a1.526 1.526 0 01-.143-1.994c.428-.57 1.425-.57 1.995-.143.57.428.712 1.567 0 2.137z" fill="#DE383F"/><path d="M32.649 48.451h-4.131c9.544-4.843 13.39-16.524 8.547-26.21-3.134-6.268-9.402-10.257-16.382-10.684V7.283H32.65c.57 0 1.14-.427 1.14-1.14V1.87c0-.57-.428-1.14-.998-1.14H6.581c-.57 0-.998.428-.998 1.14v4.274c0 .57.428 1.14 1.14 1.14h11.823v4.415C7.72 12.127-.542 21.243.028 32.07c.285 6.98 4.416 13.248 10.683 16.382h-4.13c-.57 0-1.14.428-1.14 1.14 0 .57.427 1.14 1.14 1.14h26.068c.57 0 1.14-.428 1.14-1.14-.143-.712-.57-1.14-1.14-1.14zM7.72 2.867h23.79v2.137H7.72V2.867zM2.307 31.072c0-9.544 7.835-17.379 17.379-17.236 9.544.142 17.379 7.835 17.236 17.379 0 9.544-7.834 17.236-17.378 17.236-9.545 0-17.237-7.834-17.237-17.379z" fill="#DE383F"/></svg>
